**kern	**silbe	**kern	**silbe
*ICvox	*	*ICvox	*
=1	=1	=1	=1
*B:	*	*B:	*
*M4/4	*	*M4/4	*
*clefC3	*	*clefC3	*
1r	.	1r	.
=2	=2	=2	=2
1r	.	1r	.
=3	=3	=3	=3
1r	.	1r	.
=4	=4	=4	=4
1r	.	1r	.
=5	=5	=5	=5
1r	.	1r	.
=6	=6	=6	=6
1r	.	1r	.
=7	=7	=7	=7
1r	.	1r	.
=8	=8	=8	=8
1r	.	1r	.
=9	=9	=9	=9
2r	.	1r	.
6d#	Sweet	.	.
6f#	tal-	.	.
6g#	-kin'	.	.
=10	=10	=10	=10
6g#	guy	1r	.
[3f#	_	.	.
2f#]	_	.	.
=11	=11	=11	=11
6r	.	1r	.
6c#	tal-	.	.
6c#	-kin'	.	.
6c#	sweet	.	.
6f#	kin-	.	.
6g#	-da	.	.
=12	=12	=12	=12
6g#	lies!	1r	.
[3f#	_	.	.
2f#]	_	.	.
=13	=13	=13	=13
4r	.	1r	.
4d#	Don't	.	.
4f#	you	.	.
4g#	be-	.	.
=14	=14	=14	=14
4.a	-lieve	1r	.
8g#	in	.	.
6f#	him,	.	.
6e	if	.	.
6d#	you	.	.
=15	=15	=15	=15
4.f#	do	1r	.
8r	.	.	.
6f#	he'll	.	.
6e	make	.	.
6d#	you	.	.
=16	=16	=16	=16
1e	cry.	1r	.
=17	=17	=17	=17
4r	.	1r	.
4c#	He'll	.	.
4e	send	.	.
4f#	you	.	.
=18	=18	=18	=18
8g	flo-	1r	.
4f#	-wers	.	.
8r	.	.	.
8r	.	.	.
8e	and	.	.
8e	paint	.	.
8c#	the	.	.
=19	=19	=19	=19
4e	town	1r	.
8d#	with	.	.
8e	a-	.	.
8d#	-no-	.	.
4B	-ther	.	.
[8F#	girl	.	.
=20	=20	=20	=20
2F#]	_	1r	.
4r	.	.	.
8f#	He's	.	.
8d#	a	.	.
=21	=21	=21	=21
4f#	sweet	1r	.
8f#	tal-	.	.
8f#	-kin'	.	.
8g#	guy	.	.
[4.f#	_	.	.
=22	=22	=22	=22
2f#]	_	4f#	Sweet
.	.	8f#	tal-
.	.	8f#	-kin'
4r	.	8g#	guy
.	.	[4.f#	_
8f#	but	.	.
8d#	he's	.	.
=23	=23	=23	=23
4f#	my	2f#]	_
8f#	kin-	.	.
8f#	-da	.	.
8g#	guy	2r	.
[4.f#	_	.	.
=24	=24	=24	=24
2f#]	_	4f#	Sweet
.	.	8f#	tal-
.	.	8f#	-kin'
2r	.	8g#	guy
.	.	[4.f#	_
=25	=25	=25	=25
2r	.	4f#]	_
.	.	4r	.
8d#	Swee-	2r	.
8f#	-ter	.	.
8g#	than	.	.
[8f#	su	.	.
=26	=26	=26	=26
8f#]	_	2r	.
[4.g#	gar	.	.
4g#]	_	2b	Ooh!
4r	.	.	.
=27	=27	=27	=27
2r	.	1r	.
8c#	Kis-	.	.
8f#	-ses	.	.
8g#	like	.	.
8g#	wine	.	.
=28	=28	=28	=28
1f#	_	4r	.
.	.	8b#q	_
.	.	4cc#	Oh!
.	.	8a#	He's
.	.	4f#	so
.	.	8f#q	_
.	.	[8d#	fine
=29	=29	=29	=29
4r	.	1d#_	_
4d#	Don't	.	.
4f#	let	.	.
4g#	him	.	.
=30	=30	=30	=30
6a	un-	1d#]	...
6g#	-der	.	.
6a	your	.	.
6g#	skin	.	.
3f#	_	.	.
=31	=31	=31	=31
4r	.	1r	.
4e	cuz	.	.
6f#	you'll	.	.
6e	ne-	.	.
6d#	-ver	.	.
=32	=32	=32	=32
1e	win.	4r	.
.	.	8b	No,
.	.	8b	you
.	.	8g#	ne-
.	.	4e	-ver
.	.	[8c#	will
=33	=33	=33	=33
4r	.	1c#_	_
4c#	Don't	.	.
4e	give	.	.
4f#	him	.	.
=34	=34	=34	=34
4.g	love	2c#_	_
8g	to-	.	.
4f#	-day	8c#]	_
.	.	8r	.
8r	.	4r	.
8e	to-	.	.
=35	=35	=35	=35
6e	-mor-	1r	.
6d#	-row	.	.
6e	he's	.	.
4d#	on	.	.
4B	his	.	.
=36	=36	=36	=36
[2F#	way	1r	.
8F#]	_	.	.
8r	.	.	.
8f#	He's	.	.
8d#	a	.	.
=37	=37	=37	=37
4f#	sweet	1r	.
8f#	tal-	.	.
8f#	-kin'	.	.
8g#	guy	.	.
[4.f#	_	.	.
=38	=38	=38	=38
2f#]	_	4f#	Sweet
.	.	8f#	tal-
.	.	8f#	-kin'
4r	.	8g#	guy
.	.	[4.f#	_
8f#	but	.	.
8d#	he's	.	.
=39	=39	=39	=39
4f#	my	2f#]	_
8f#	kin-	.	.
8f#	-da	.	.
8g#	guy	2r	.
[4.f#	_	.	.
=40	=40	=40	=40
1f#]	...	4f#	Sweet
.	.	8f#	tal-
.	.	8f#	-kin'
.	.	8g#	guy
.	.	4.f#	_
=41	=41	=41	=41
4r	.	4r	.
4a	Why	4f# a	Why
4g	do	4f# a	do
4f#	I	4f# a	I
=42	=42	=42	=42
4f#	love	4g b	love
4e	him	4g b	him
4d	like	4g b	like
4e	I	4g b	I
=43	=43	=43	=43
[2g	do?	1e g cc	do?
8g]	_	.	.
8a	_	.	.
4g	_	.	.
=44	=44	=44	=44
1f#	_	1c# f# a#	_
=45	=45	=45	=45
1r	.	1r	.
=46	=46	=46	=46
1r	.	1r	.
=47	=47	=47	=47
1r	.	1r	.
=48	=48	=48	=48
1r	.	1r	.
=49	=49	=49	=49
1r	.	1r	.
=50	=50	=50	=50
1r	.	1r	.
=51	=51	=51	=51
1r	.	1r	.
=52	=52	=52	=52
1r	.	1r	.
=53	=53	=53	=53
[1g	Whoo	[1e [g [b	Whoo
=54	=54	=54	=54
2g]	_	2.e_ g_ b]	_
4f#	_	.	.
4e	...	4e] g] cc#	_
=55	=55	=55	=55
1r	.	[1d# [f# [b	_
=56	=56	=56	=56
2r	.	2d#_ f#_ b_	_
4r	.	8d#] f#] b]	_
.	.	8r	.
8f#	He's	4r	.
8d#	a	.	.
=57	=57	=57	=57
4f#	sweet	2r	.
8f#	tal-	.	.
8f#	-kin',	.	.
2r	.	4g#	sweet
.	.	8f#	tal-
.	.	8f#	-kin',
=58	=58	=58	=58
4f#	sweet	2r	.
8f#	tal-	.	.
8f#	-kin',	.	.
2r	.	4g#	sweet
.	.	8f#	tal-
.	.	8f#	-kin',
=59	=59	=59	=59
[1a#	guy	[1e [f#	guy
=60	=60	=60	=60
2.a#_	_	2.e_ f#_	_
8a#]	_	8e] f#]	_
8r	.	8r	.
=61	=61	=61	=61
8f#	Stay	[1B	Stay
8e	a-	.	.
8d#	-way	.	.
8c#	from	.	.
4B	him,	.	.
8f#	stay	.	.
8e	a-	.	.
=62	=62	=62	=62
8d#	-way	4B]	_
8c#	from	.	.
4B	him,	4B	a-
8f#	don't	4c#	-way
8e	be-	.	.
8d#	-lieve	4d#	from
8c#	his	.	.
=63	=63	=63	=63
4f#	ly-	[1A#	him
[2.c#	-ing	.	.
=64	=64	=64	=64
2c#_	_	4A#]	_
.	.	4r	.
8c#]	_	4d#	No,
8r	.	.	.
4r	.	4f#	no,
=65	=65	=65	=65
8f#	No,	1A	no
8e	you'll	.	.
8d#	ne-	.	.
8c#	-ver	.	.
4B#	win,	.	.
8f#	no,	.	.
8e	you'll	.	.
=66	=66	=66	=66
8d#	ne-	4r	.
8c#	-ver	.	.
4B#	win,	4B#	you'll
8f#	lo-	4d#	ne-
8e	-ser's	.	.
8d#	in	4f#	-ver
8c#	for	.	.
=67	=67	=67	=67
4e	cry-	[1e	win
[2.B	-ing	.	.
=68	=68	=68	=68
2B_	_	2.e_	_
8B]	_	.	.
8r	.	.	.
4r	.	8e]	_
.	.	8r	.
=69	=69	=69	=69
4r	.	[1e [g [b	Whoo
4c#	Don't	.	.
4e	give	.	.
4f#	him	.	.
=70	=70	=70	=70
4.g	love	2.e] g] b]	_
8g	to-	.	.
4f#	-day,	.	.
8r	.	4r	.
8e	to-	.	.
=71	=71	=71	=71
6e	-mor-	1r	.
6d#	-row	.	.
6e	he's	.	.
4d#	on	.	.
4B	his	.	.
=72	=72	=72	=72
[2F#	way	1r	.
8F#]	_	.	.
8r	.	.	.
8f#	He's	.	.
8d#	a	.	.
=73	=73	=73	=73
4f#	sweet	2r	.
8f#	tal-	.	.
8f#	-kin',	.	.
2r	.	4g#	sweet
.	.	8f#	tal-
.	.	8f#	-kin',
=74	=74	=74	=74
4f#	sweet	2r	.
8f#	tal-	.	.
8f#	-kin',	.	.
2r	.	4g#	sweet
.	.	8e g#	tal-
.	.	8e g#	-kin',
=75	=75	=75	=75
4f#	sweet	2r	.
8f#	tal-	.	.
8f#	-kin',	.	.
2r	.	4e g# b	sweet
.	.	8e g# b	tal-
.	.	8e g# b	-kin',
=76	=76	=76	=76
4f#	sweet	2r	.
8f#	tal-	.	.
8f#	-kin',	.	.
2r	.	4e g# b	sweet
.	.	8e g# b	tal-
.	.	8e g# b	-kin',
=77	=77	=77	=77
[1a#	guy	[1f# [a# [cc#	guy
=78	=78	=78	=78
2.a#_	_	2.f#_ a#_ cc#_	_
8a#]	_	8f#] a#] cc#]	_
8r	.	8r	.
=79	=79	=79	=79
4r	.	[1B	Stay
4d# f# b	Sweet,	.	.
4d# f# b	sweet,	.	.
8r	.	.	.
8d# f# b	sweet	.	.
=80	=80	=80	=80
8r	.	4B]	_
8d# f# b	tal	.	.
8r	.	4B	a-
8d# f# b	kin'	.	.
4.d# f# b	guy	4c#	-way
.	.	4d#	from
8r	.	.	.
=81	=81	=81	=81
4r	.	[1A#	him
4c# f# a#	Sweet,	.	.
4c# f# a#	sweet,	.	.
8r	.	.	.
8c# f# a#	sweet	.	.
=82	=82	=82	=82
8r	.	4A#]	_
8c# f# a#	tal	.	.
8r	.	4r	.
8c# f# a#	kin'	.	.
4.c# f# a#	guy	4d#	No,
.	.	4f#	no,
8r	.	.	.
=83	=83	=83	=83
4r	.	1A	no
4d# f# a	Sweet,	.	.
4d# f# a	sweet,	.	.
8r	.	.	.
8d# f# a	sweet	.	.
=84	=84	=84	=84
8r	.	4r	.
8d# f# a	tal	.	.
8r	.	4B#	you'll
8d# f# a	kin'	.	.
4.d# f# a	guy	4d#	ne-
.	.	4f#	-ver
8r	.	.	.
=85	=85	=85	=85
4r	.	[1e	win
4B e g#	Sweet,	.	.
4B e g#	sweet,	.	.
8r	.	.	.
8B e g#	sweet	.	.
=86	=86	=86	=86
8r	.	2e_	_
8B e g#	tal	.	.
8r	.	.	.
8B e g#	kin'	.	.
4.B e g#	guy	8e]	_
.	.	4r	.
8r	.	8r	.
=87	=87	=87	=87
4r	.	[1e [g [b	Whoo
4B e g	Sweet,	.	.
4B e g	sweet,	.	.
8r	.	.	.
8B e g	sweet	.	.
=88	=88	=88	=88
8r	.	2.e_ g_ b]	_
8B e g	tal	.	.
8r	.	.	.
8B e g	kin'	.	.
4.c# e g	guy	.	.
.	.	4e] g] cc#	_
8r	.	.	.
=89	=89	=89	=89
4r	.	[1d# [f# [b	_
4B d# f#	Sweet,	.	.
4B d# f#	sweet,	.	.
8r	.	.	.
8B d# f#	sweet	.	.
=90	=90	=90	=90
8r	.	2d#_ f#_ b_	_
8B d# f#	tal	.	.
8r	.	.	.
8B d# f#	kin'	.	.
4.B d# f#	guy	8d#] f#] b]	_
.	.	8r	.
.	.	4r	.
8r	.	.	.
*-	*-	*-	*-
!!!ENC: Nathaniel Condit-Schultz